packages/gestalt-icons-android/vr-theme/ic_vr_record-limit-30_gestalt.svg

<svg width="24" height="24" viewBox="0 0 24 24" fill="none" xmlns="http://www.w3.org/2000/svg">
<path d="M11.9516 2.00008L11.9998 1.99997C17.5226 1.99997 21.9997 6.47706 21.9997 11.9998C21.9997 17.5226 17.5226 21.9997 11.9998 21.9997L11.9516 21.9996C11.3993 21.997 10.9495 22.4426 10.9469 22.9948C10.9443 23.5471 11.3899 23.9969 11.9422 23.9995L11.9998 23.9996C18.6271 23.9996 23.9996 18.6271 23.9996 11.9998C23.9996 5.3725 18.6271 0 11.9998 0L11.9422 0.000135897C11.3899 0.00273921 10.9443 0.452553 10.9469 1.00482C10.9495 1.55709 11.3993 2.00269 11.9516 2.00008Z" fill="black"/>
<path d="M8.76341 1.43603C8.55432 0.924861 7.97044 0.679984 7.45927 0.889077C7.42383 0.903575 7.38847 0.918237 7.3532 0.933063C6.84407 1.14707 6.60482 1.73328 6.81883 2.24241C7.03283 2.75154 7.61905 2.99078 8.12818 2.77678C8.15753 2.76444 8.18696 2.75224 8.21646 2.74017C8.72763 2.53108 8.97251 1.94719 8.76341 1.43603Z" fill="black"/>
<path d="M4.96956 3.48088C4.5809 3.08851 3.94775 3.08549 3.55538 3.47415C3.52817 3.5011 3.50109 3.52818 3.47415 3.55538C3.08549 3.94776 3.0885 4.5809 3.48088 4.96956C3.87325 5.35821 4.5064 5.3552 4.89505 4.96283C4.91754 4.94013 4.94013 4.91754 4.96283 4.89506C5.3552 4.5064 5.35821 3.87325 4.96956 3.48088Z" fill="black"/>
<path d="M2.24241 6.81883C1.73328 6.60483 1.14707 6.84407 0.933062 7.3532C0.918237 7.38847 0.903574 7.42383 0.889077 7.45927C0.679983 7.97044 0.924861 8.55432 1.43603 8.76341C1.94719 8.97251 2.53107 8.72763 2.74017 8.21647L2.76295 8.16124L2.77447 8.13368L2.77678 8.12818C2.99078 7.61905 2.75154 7.03283 2.24241 6.81883Z" fill="black"/>
<path d="M1.00482 10.9469C0.452553 10.9443 0.00273891 11.3899 0.000136373 11.9422L0 11.9998L0.000136373 12.0575C0.00273891 12.6098 0.452553 13.0554 1.00482 13.0528C1.55709 13.0502 2.00269 12.6003 2.00008 12.0481L1.99997 11.9998L2.00008 11.9516C2.00269 11.3993 1.55709 10.9495 1.00482 10.9469Z" fill="black"/>
<path d="M1.43603 15.2362C0.924861 15.4453 0.679984 16.0292 0.889077 16.5404C0.903575 16.5758 0.918238 16.6112 0.933063 16.6465C1.14707 17.1556 1.73328 17.3948 2.24241 17.1808C2.75154 16.9668 2.99078 16.3806 2.77678 15.8715C2.76444 15.8421 2.75224 15.8127 2.74017 15.7832C2.53108 15.272 1.94719 15.0271 1.43603 15.2362Z" fill="black"/>
<path d="M3.48088 19.0301C3.08851 19.4187 3.08549 20.0519 3.47415 20.4443C3.5011 20.4715 3.52818 20.4986 3.55538 20.5255C3.94776 20.9142 4.5809 20.9111 4.96956 20.5188C5.35821 20.1264 5.3552 19.4933 4.96283 19.1046C4.94013 19.0821 4.91754 19.0595 4.89506 19.0368C4.5064 18.6444 3.87325 18.6414 3.48088 19.0301Z" fill="black"/>
<path d="M6.81883 21.7572C6.60483 22.2664 6.84407 22.8526 7.3532 23.0666C7.38847 23.0814 7.42383 23.0961 7.45927 23.1106C7.97044 23.3197 8.55432 23.0748 8.76341 22.5636C8.97251 22.0525 8.72763 21.4686 8.21647 21.2595C8.18697 21.2474 8.15754 21.2352 8.12818 21.2229C7.61905 21.0089 7.03283 21.2481 6.81883 21.7572Z" fill="black"/>
<path d="M8.78031 11.1268L10.8043 9.64186V8.24488H5.54636V9.72986H8.65931L6.34935 11.3248L6.91034 12.4578C7.28433 12.2268 7.64733 12.1278 8.10932 12.1278C8.90131 12.1278 9.4513 12.6448 9.4513 13.4038C9.4513 14.2178 8.90131 14.7238 8.05432 14.7238C7.31733 14.7238 6.84434 14.3608 6.65734 13.6458L5.17237 14.3058C5.45836 15.4828 6.53635 16.1538 8.15332 16.1538C9.8583 16.1538 11.1013 15.0538 11.1013 13.5358C11.1013 12.0618 10.2433 11.1818 8.78031 11.1268Z" fill="black"/>
<path fill-rule="evenodd" clip-rule="evenodd" d="M12.055 12.1168C12.055 14.6468 13.265 16.1538 15.278 16.1538C17.3019 16.1538 18.5009 14.6468 18.5009 12.1168C18.5009 9.59786 17.3019 8.09088 15.278 8.09088C13.265 8.09088 12.055 9.59786 12.055 12.1168ZM16.8509 12.1168C16.8509 13.7228 16.2569 14.6688 15.278 14.6688C14.299 14.6688 13.716 13.7228 13.716 12.1168C13.716 10.5218 14.299 9.57586 15.278 9.57586C16.2569 9.57586 16.8509 10.5218 16.8509 12.1168Z" fill="black"/>
</svg>

<svg xmlns="http://www.w3.org/2000/svg" width="24" height="24"><path d="M11.95 2H12a10 10 0 1 1 0 20h-.05a1 1 0 1 0 0 2H12a12 12 0 0 0 0-24h-.06a1 1 0 1 0 .01 2m-3.19-.56a1 1 0 0 0-1.3-.55l-.1.04a1 1 0 1 0 .77 1.85l.09-.04a1 1 0 0 0 .54-1.3M4.97 3.48a1 1 0 0 0-1.41 0l-.09.08a1 1 0 1 0 1.43 1.4l.06-.06a1 1 0 0 0 .01-1.42M2.24 6.82a1 1 0 0 0-1.3.53l-.05.1a1 1 0 1 0 1.85.77l.02-.06.01-.03a1 1 0 0 0-.53-1.31M1 10.95a1 1 0 0 0-1 1v.11a1 1 0 1 0 2-.01v-.1a1 1 0 0 0-1-1m.44 4.29a1 1 0 0 0-.55 1.3l.04.1a1 1 0 0 0 1.85-.77l-.04-.09a1 1 0 0 0-1.3-.54m2.04 3.79a1 1 0 0 0 0 1.41l.08.09a1 1 0 1 0 1.34-1.5 1 1 0 0 0-1.42 0m3.34 2.73a1 1 0 0 0 .53 1.3l.1.05a1 1 0 0 0 .77-1.85l-.1-.04a1 1 0 0 0-1.3.54m1.96-10.63 2.02-1.49v-1.4H5.55v1.49h3.1l-2.3 1.6.56 1.13c.37-.23.74-.33 1.2-.33.8 0 1.34.51 1.34 1.27 0 .82-.55 1.32-1.4 1.32q-1.1 0-1.4-1.07l-1.48.66c.29 1.17 1.37 1.84 2.98 1.84 1.7 0 2.95-1.1 2.95-2.61 0-1.48-.86-2.36-2.32-2.41m3.28.99c0 2.53 1.2 4.03 3.22 4.03s3.22-1.5 3.22-4.03c0-2.52-1.2-4.03-3.22-4.03s-3.23 1.5-3.23 4.03m4.8 0c0 1.6-.6 2.55-1.58 2.55s-1.56-.95-1.56-2.55.58-2.54 1.56-2.54 1.57.94 1.57 2.54"/></svg>
